X:191
T:Lady Belhaven
T:Miss Pensy Macdonald
B:The Piper's Assistant (Edinburgh 1877)
Z:Nigel Gatherer
M:4/4
L:1/8
K:Amix
d|cA A/A/A ecae|cA A/A/A dBGB|cA A/A/A eceg|afge dBG:|
g|faea daca|Bggd BGGg|faea daca|Baae cAAg|
faea daca|Bggd BGGg|afge f>dec|dBge aAA|]
<end>
<start>
